X:198
T: Osterlied des 15. Jahrhunderts
N: A0553A
O: Europa, Mitteleuropa, Deutschland
N: H. Finck 1536 No. 1
R: Romanze, Ballade, Lied, religioeses Lied
M: 4/1
L: 1/2
K: D
 |  | D2A2E2G2 | =F2E2D4 |
A2B2=c2B2 | A2G2A2z
A | d2B2=c2A2 | G4=F4E4
D2A2E2G2 | =F4E4D4
=C2D2E2D2 | G2A2=FDE2 | D8

@@@ Tune index: 511
